X: 391
%
U:~=!turn!
T: Miss Campbell's
C:Robt. McIntosh
O:Scotland
B:Keith Norman MacDonald : "The Skye collection of the best reels & strathspeys extant" : 1887
Z:Ralph Palmer
R:Reel
M:C
L:1/8
K:F
f | cFAF DFCF | B,FA,F GG,G,f | cFAF DFCF | B,G,BG AFFf | cFAF DFCF |
B,FA,F GG,G,B | Acf_e dBgf | ecbg aff || g | (a/g/f/e/) fc fcAF | BdTcA BGGg |
(a/g/f/e/) fc Acfc | dBbg affg | afef dfcf | BfAf gGGB | AcFA BdGB | cegb aff |]


